apps/scalable/org.gnome.lollypop.svg

<svg xmlns="http://www.w3.org/2000/svg" width="48" height="48" version="1.1" viewBox="0 0 48 48">
 <g transform="translate(0 -1004.4)">
  <ellipse fill="#fa4b8c" cx="24" cy="1028.4" rx="20" ry="20"/>
  <path opacity=".2" d="m20.199 5.4004c-0.513 0.094-1.021 0.2096-1.525 0.3437-0.642 0.178-1.276 0.3877-1.897 0.6289-0.62 0.2413-1.227 0.5125-1.82 0.8145s-1.172 0.6344-1.732 0.9941c-0.561 0.3599-1.102 0.7462-1.623 1.1602-0.522 0.4138-1.023 0.8542-1.5 1.3182-0.062 0.065-0.1235 0.13-0.184 0.195 0.399 2.737 2.434 6.071 4.576 8.631a11 11 0 0 0 -1.494 5.514 11 11 0 0 0 0.049 0.961c-3.1324-1.615-6.4218-4.289-7.9006-7.457-0.0736 0.192-0.1452 0.385-0.2129 0.58-0.1967 0.636-0.3599 1.281-0.4921 1.934-0.1324 0.652-0.2323 1.312-0.2989 1.974-0.0664 0.663-0.0996 1.327-0.0996 1.992 0 0.178 0.0131 0.356 0.0176 0.534a20 20 0 0 0 0.9551 4.703c2.5646 0.911 6.2914 0.817 9.4624 0.263a11 11 0 0 0 4.899 4.485c-2.722 1.749-6.281 3.15-9.5431 3.135a20 20 0 0 0 9.8181 5.402c1.811-1.843 3.356-4.782 4.354-7.506a11 11 0 0 0 6.332 -2.027c0.15 3.094-0.35 6.708-1.834 9.488a20 20 0 0 0 9.439 -5.127c-0.626-2.575-2.47-5.534-4.416-7.857a11 11 0 0 0 1.471 -5.477 11 11 0 0 0 -0.055 -1.008c3.017 1.548 6.169 4.086 7.731 7.1a20 20 0 0 0 1.295 -6.504c-0.007-0.339-0.012-0.678-0.035-1.016-0.048-0.664-0.127-1.324-0.241-1.98-0.105-0.591-0.237-1.177-0.394-1.756-3.122-1.113-6.894-0.864-9.797-0.348a11 11 0 0 0 -4.893 -4.461c2.968-1.916 6.948-3.444 10.446-3.14-0.232-0.279-0.471-0.549-0.717-0.815-0.464-0.477-0.95-0.932-1.459-1.3611-0.509-0.429-1.041-0.831-1.59-1.207-0.55-0.3759-1.117-0.7257-1.701-1.0449s-1.186-0.6079-1.799-0.8672-1.239-0.4888-1.875-0.6856c-0.238-0.066-0.478-0.1268-0.719-0.1835-2.169 1.715-4.038 5.1433-5.183 8.2773a11 11 0 0 0 -0.014 0 11 11 0 0 0 -6.311 2.006c-0.172-3.527 0.498-7.7319 2.51-10.606z" transform="translate(0 1004.4)"/>
  <path fill="#fff" d="m20.199 4.4004c-0.513 0.094-1.021 0.2096-1.525 0.3437-0.642 0.178-1.276 0.3877-1.897 0.6289-0.62 0.2413-1.227 0.5125-1.82 0.8145s-1.172 0.6344-1.732 0.9941c-0.561 0.3599-1.102 0.7462-1.623 1.1602-0.522 0.4138-1.023 0.8546-1.5 1.3184-0.062 0.065-0.1235 0.1294-0.184 0.1953 0.399 2.7365 2.434 6.0705 4.576 8.6305a11 11 0 0 0 -1.494 5.514 11 11 0 0 0 0.049 0.961c-3.1324-1.615-6.4218-4.289-7.9006-7.457-0.0736 0.192-0.1452 0.385-0.2129 0.58-0.1967 0.636-0.3599 1.281-0.4921 1.934-0.1324 0.652-0.2323 1.312-0.2989 1.974-0.0664 0.663-0.0996 1.327-0.0996 1.992-0.0001 0.472 0.0156 0.944 0.0489 1.414 0.0471 0.665 0.1289 1.325 0.2421 1.981 0.1046 0.588 0.2358 1.172 0.3926 1.748 2.5671 1.023 6.4635 0.931 9.7515 0.357a11 11 0 0 0 4.899 4.485c-2.964 1.904-6.924 3.418-10.406 3.115 0.231 0.278 0.4703 0.549 0.7165 0.814 0.4635 0.478 0.9515 0.933 1.4605 1.362 0.51 0.429 1.039 0.831 1.588 1.207 0.55 0.376 1.119 0.726 1.703 1.045 0.585 0.319 1.184 0.608 1.797 0.867 0.614 0.259 1.239 0.489 1.875 0.685 0.241 0.066 0.482 0.127 0.725 0.184 2.161-1.71 4.025-5.122 5.17-8.248a11 11 0 0 0 6.332 -2.027c0.17 3.525-0.499 7.726-2.51 10.597 0.513-0.094 1.023-0.209 1.527-0.343 0.642-0.179 1.274-0.388 1.895-0.629 0.621-0.242 1.229-0.513 1.822-0.815 0.594-0.302 1.17-0.634 1.731-0.994 0.56-0.36 1.101-0.746 1.623-1.16 0.521-0.414 1.022-0.855 1.5-1.318 0.061-0.065 0.123-0.13 0.183-0.196-0.399-2.74-2.437-6.077-4.582-8.638a11 11 0 0 0 1.471 -5.477 11 11 0 0 0 -0.055 -1.008c3.143 1.613 6.452 4.295 7.936 7.475 0.074-0.193 0.145-0.386 0.213-0.58 0.196-0.636 0.362-1.281 0.494-1.934 0.132-0.652 0.23-1.312 0.297-1.974 0.066-0.663 0.099-1.329 0.099-1.995 0-0.471-0.015-0.942-0.048-1.412-0.048-0.664-0.127-1.324-0.241-1.98-0.105-0.591-0.237-1.177-0.394-1.756-3.122-1.113-6.894-0.864-9.797-0.348a11 11 0 0 0 -4.893 -4.461c2.968-1.916 6.948-3.444 10.446-3.14-0.232-0.279-0.471-0.549-0.717-0.815-0.464-0.4773-0.95-0.9322-1.459-1.3611-0.509-0.429-1.041-0.831-1.59-1.207-0.55-0.3759-1.117-0.7257-1.701-1.0449s-1.186-0.6079-1.799-0.8672-1.239-0.4888-1.875-0.6856c-0.238-0.066-0.478-0.1268-0.719-0.1835-2.169 1.7149-4.038 5.1433-5.183 8.2773a11 11 0 0 0 -0.014 0 11 11 0 0 0 -6.311 2.006c-0.172-3.527 0.498-7.7319 2.51-10.606z" transform="translate(0 1004.4)"/>
  <path fill="#fa4b8c" d="m20.634 1022.4c-0.34781-0.01-0.63418 0.2869-0.6343 0.6546v10.689c-0.000004 0.5041 0.51643 0.8192 0.92966 0.5672l4.3801-2.6723 4.3804-2.6723c0.41301-0.2522 0.41301-0.8821 0-1.1342l-4.3804-2.6724-4.3801-2.6723c-0.08995-0.055-0.19151-0.085-0.29536-0.088z"/>
  <path fill="#fff" opacity=".2" d="m24 1008.4a20 20 0 0 0 -20 20 20 20 0 0 0 0.02148 0.582 20 20 0 0 1 19.979 -19.582 20 20 0 0 1 19.979 19.418 20 20 0 0 0 0.02148 -0.418 20 20 0 0 0 -20 -20z"/>
  <path opacity=".2" d="m43.979 1028.8a20 20 0 0 1 -19.979 19.6 20 20 0 0 1 -19.978 -19.5 20 20 0 0 0 -0.022 0.5 20 20 0 0 0 20 20 20 20 0 0 0 20 -20 20 20 0 0 0 -0.02148 -0.582z"/>
 </g>
</svg>

<?xml version="1.0" encoding="UTF-8" standalone="no"?>
<svg
   xmlns:dc="http://purl.org/dc/elements/1.1/"
   xmlns:cc="http://creativecommons.org/ns#"
   xmlns:rdf="http://www.w3.org/1999/02/22-rdf-syntax-ns#"
   xmlns:svg="http://www.w3.org/2000/svg"
   xmlns="http://www.w3.org/2000/svg"
   xmlns:sodipodi="http://sodipodi.sourceforge.net/DTD/sodipodi-0.dtd"
   xmlns:inkscape="http://www.inkscape.org/namespaces/inkscape"
   width="48"
   height="48"
   version="1.1"
   viewBox="0 0 48 48"
   id="svg16"
   sodipodi:docname="org.gnome.lollypop.svg"
   inkscape:version="0.92.2pre0 (973e216, 2017-07-25)">
  <metadata
     id="metadata22">
    <rdf:RDF>
      <cc:Work
         rdf:about="">
        <dc:format>image/svg+xml</dc:format>
        <dc:type
           rdf:resource="http://purl.org/dc/dcmitype/StillImage" />
      </cc:Work>
    </rdf:RDF>
  </metadata>
  <defs
     id="defs20" />
  <sodipodi:namedview
     pagecolor="#ffffff"
     bordercolor="#666666"
     borderopacity="1"
     objecttolerance="10"
     gridtolerance="10"
     guidetolerance="10"
     inkscape:pageopacity="0"
     inkscape:pageshadow="2"
     inkscape:window-width="640"
     inkscape:window-height="480"
     id="namedview18"
     showgrid="false"
     inkscape:zoom="6.9532167"
     inkscape:cx="26.263717"
     inkscape:cy="15.719561"
     inkscape:window-x="0"
     inkscape:window-y="0"
     inkscape:window-maximized="0"
     inkscape:current-layer="svg16" />
  <g
     transform="matrix(1.1322002,0,0,1.1190574,-3.1728687,-1126.8983)"
     id="g14">
    <circle
       cx="24"
       cy="1028.4"
       id="ellipse2"
       r="20"
       style="fill:#fa4b8c" />
    <path
       d="m 20.199,5.4004 c -0.513,0.094 -1.021,0.2096 -1.525,0.3437 -0.642,0.178 -1.276,0.3877 -1.897,0.6289 -0.62,0.2413 -1.227,0.5125 -1.82,0.8145 -0.593,0.302 -1.172,0.6344 -1.732,0.9941 -0.561,0.3599 -1.102,0.7462 -1.623,1.1602 -0.522,0.4138 -1.023,0.8542 -1.5,1.3182 -0.062,0.065 -0.1235,0.13 -0.184,0.195 0.399,2.737 2.434,6.071 4.576,8.631 A 11,11 0 0 0 13,25 11,11 0 0 0 13.049,25.961 C 9.9166,24.346 6.6272,21.672 5.1484,18.504 5.0748,18.696 5.0032,18.889 4.9355,19.084 4.7388,19.72 4.5756,20.365 4.4434,21.018 4.311,21.67 4.2111,22.33 4.1445,22.992 c -0.0664,0.663 -0.0996,1.327 -0.0996,1.992 0,0.178 0.0131,0.356 0.0176,0.534 a 20,20 0 0 0 0.9551,4.703 c 2.5646,0.911 6.2914,0.817 9.4624,0.263 a 11,11 0 0 0 4.899,4.485 c -2.722,1.749 -6.281,3.15 -9.5431,3.135 a 20,20 0 0 0 9.8181,5.402 C 21.465,41.663 23.01,38.724 24.008,36 a 11,11 0 0 0 6.332,-2.027 c 0.15,3.094 -0.35,6.708 -1.834,9.488 a 20,20 0 0 0 9.439,-5.127 C 37.319,35.759 35.475,32.8 33.529,30.477 A 11,11 0 0 0 35,25 11,11 0 0 0 34.945,23.992 c 3.017,1.548 6.169,4.086 7.731,7.1 a 20,20 0 0 0 1.295,-6.504 C 43.964,24.249 43.959,23.91 43.936,23.572 43.888,22.908 43.809,22.248 43.695,21.592 43.59,21.001 43.458,20.415 43.301,19.836 40.179,18.723 36.407,18.972 33.504,19.488 a 11,11 0 0 0 -4.893,-4.461 c 2.968,-1.916 6.948,-3.444 10.446,-3.14 C 38.825,11.608 38.586,11.338 38.34,11.072 37.876,10.595 37.39,10.14 36.881,9.7109 36.372,9.2819 35.84,8.8799 35.291,8.5039 34.741,8.128 34.174,7.7782 33.59,7.459 33.006,7.1398 32.404,6.8511 31.791,6.5918 31.178,6.3325 30.552,6.103 29.916,5.9062 29.678,5.8402 29.438,5.7794 29.197,5.7227 27.028,7.4377 25.159,10.866 24.014,14 A 11,11 0 0 0 24,14 11,11 0 0 0 17.689,16.006 C 17.517,12.479 18.187,8.2741 20.199,5.4 Z"
       transform="translate(0,1004.4)"
       id="path4"
       inkscape:connector-curvature="0"
       style="opacity:0.2" />
    <path
       d="m 20.199,4.4004 c -0.513,0.094 -1.021,0.2096 -1.525,0.3437 -0.642,0.178 -1.276,0.3877 -1.897,0.6289 -0.62,0.2413 -1.227,0.5125 -1.82,0.8145 -0.593,0.302 -1.172,0.6344 -1.732,0.9941 -0.561,0.3599 -1.102,0.7462 -1.623,1.1602 -0.522,0.4138 -1.023,0.8546 -1.5,1.3184 -0.062,0.065 -0.1235,0.1294 -0.184,0.1953 0.399,2.7365 2.434,6.0705 4.576,8.6305 A 11,11 0 0 0 13,24 11,11 0 0 0 13.049,24.961 C 9.9166,23.346 6.6272,20.672 5.1484,17.504 5.0748,17.696 5.0032,17.889 4.9355,18.084 4.7388,18.72 4.5756,19.365 4.4434,20.018 4.311,20.67 4.2111,21.33 4.1445,21.992 c -0.0664,0.663 -0.0996,1.327 -0.0996,1.992 -10e-5,0.472 0.0156,0.944 0.0489,1.414 0.0471,0.665 0.1289,1.325 0.2421,1.981 0.1046,0.588 0.2358,1.172 0.3926,1.748 2.5671,1.023 6.4635,0.931 9.7515,0.357 a 11,11 0 0 0 4.899,4.485 c -2.964,1.904 -6.924,3.418 -10.406,3.115 0.231,0.278 0.4703,0.549 0.7165,0.814 0.4635,0.478 0.9515,0.933 1.4605,1.362 0.51,0.429 1.039,0.831 1.588,1.207 0.55,0.376 1.119,0.726 1.703,1.045 0.585,0.319 1.184,0.608 1.797,0.867 0.614,0.259 1.239,0.489 1.875,0.685 0.241,0.066 0.482,0.127 0.725,0.184 2.161,-1.71 4.025,-5.122 5.17,-8.248 a 11,11 0 0 0 6.332,-2.027 c 0.17,3.525 -0.499,7.726 -2.51,10.597 0.513,-0.094 1.023,-0.209 1.527,-0.343 0.642,-0.179 1.274,-0.388 1.895,-0.629 0.621,-0.242 1.229,-0.513 1.822,-0.815 0.594,-0.302 1.17,-0.634 1.731,-0.994 0.56,-0.36 1.101,-0.746 1.623,-1.16 0.521,-0.414 1.022,-0.855 1.5,-1.318 0.061,-0.065 0.123,-0.13 0.183,-0.196 -0.399,-2.74 -2.437,-6.077 -4.582,-8.638 A 11,11 0 0 0 35,24 11,11 0 0 0 34.945,22.992 c 3.143,1.613 6.452,4.295 7.936,7.475 0.074,-0.193 0.145,-0.386 0.213,-0.58 0.196,-0.636 0.362,-1.281 0.494,-1.934 0.132,-0.652 0.23,-1.312 0.297,-1.974 0.066,-0.663 0.099,-1.329 0.099,-1.995 0,-0.471 -0.015,-0.942 -0.048,-1.412 -0.048,-0.664 -0.127,-1.324 -0.241,-1.98 -0.105,-0.591 -0.237,-1.177 -0.394,-1.756 -3.122,-1.113 -6.894,-0.864 -9.797,-0.348 a 11,11 0 0 0 -4.893,-4.461 c 2.968,-1.916 6.948,-3.444 10.446,-3.14 C 38.825,10.608 38.586,10.338 38.34,10.072 37.876,9.5947 37.39,9.1398 36.881,8.7109 36.372,8.2819 35.84,7.8799 35.291,7.5039 34.741,7.128 34.174,6.7782 33.59,6.459 33.006,6.1398 32.404,5.8511 31.791,5.5918 31.178,5.3325 30.552,5.103 29.916,4.9062 29.678,4.8402 29.438,4.7794 29.197,4.7227 27.028,6.4376 25.159,9.866 24.014,13 A 11,11 0 0 0 24,13 11,11 0 0 0 17.689,15.006 C 17.517,11.479 18.187,7.2741 20.199,4.4 Z"
       transform="translate(0,1004.4)"
       id="path6"
       inkscape:connector-curvature="0"
       style="fill:#ffffff" />
    <path
       d="m 20.634,1022.4 c -0.34781,-0.01 -0.63418,0.2869 -0.6343,0.6546 v 10.689 c -4e-6,0.5041 0.51643,0.8192 0.92966,0.5672 l 4.3801,-2.6723 4.3804,-2.6723 c 0.41301,-0.2522 0.41301,-0.8821 0,-1.1342 l -4.3804,-2.6724 -4.3801,-2.6723 c -0.08995,-0.055 -0.19151,-0.085 -0.29536,-0.088 z"
       id="path8"
       inkscape:connector-curvature="0"
       style="fill:#fa4b8c" />
    <path
       d="m 24,1008.4 a 20,20 0 0 0 -20,20 20,20 0 0 0 0.02148,0.582 20,20 0 0 1 19.979,-19.582 20,20 0 0 1 19.979,19.418 20,20 0 0 0 0.02148,-0.418 20,20 0 0 0 -20,-20 z"
       id="path10"
       inkscape:connector-curvature="0"
       style="opacity:0.2;fill:#ffffff" />
    <path
       d="M 43.979,1028.8 A 20,20 0 0 1 24,1048.4 20,20 0 0 1 4.022,1028.9 20,20 0 0 0 4,1029.4 a 20,20 0 0 0 20,20 20,20 0 0 0 20,-20 20,20 0 0 0 -0.02148,-0.582 z"
       id="path12"
       inkscape:connector-curvature="0"
       style="opacity:0.2" />
  </g>
</svg>
